svg/general/outlined-pdf-file.svg

<svg width="16" height="17" viewBox="0 0 16 17" fill="none" xmlns="http://www.w3.org/2000/svg">
<path d="M8.12701 8.133C8.45201 6.733 8.24901 6.275 8.06401 6.051C7.98794 5.9594 7.89276 5.88554 7.78515 5.83458C7.67753 5.78362 7.56008 5.7568 7.44101 5.756C7.34514 5.75947 7.25023 5.7763 7.15901 5.806C7.03215 5.84383 6.91586 5.91071 6.81935 6.00132C6.72284 6.09193 6.64877 6.20378 6.60301 6.328C6.44352 6.98565 6.55026 7.67968 6.90001 8.259C6.66543 9.12647 6.36454 9.97463 6.00001 10.796C4.92501 11.304 4.39101 11.807 4.32401 12.375C4.30516 12.556 4.33608 12.7388 4.41344 12.9036C4.49081 13.0683 4.61167 13.2089 4.76301 13.31C4.89708 13.4179 5.06394 13.4768 5.23601 13.477C5.4534 13.4505 5.66121 13.3721 5.84189 13.2483C6.02256 13.1246 6.17078 12.9591 6.27401 12.766C6.50282 12.4278 6.70318 12.0713 6.87301 11.7C7.50762 11.4385 8.16116 11.2255 8.82801 11.063C9.15485 11.3939 9.59105 11.5944 10.055 11.627C10.2276 11.6264 10.3974 11.5836 10.5496 11.5022C10.7018 11.4207 10.8317 11.3033 10.928 11.16C11.0433 11.0332 11.118 10.8747 11.1424 10.705C11.1669 10.5353 11.1399 10.3622 11.065 10.208C10.9461 10.0335 10.7813 9.89524 10.5888 9.80843C10.3963 9.72161 10.1835 9.68963 9.97401 9.716C9.72433 9.71556 9.47508 9.73664 9.22901 9.779C8.79837 9.27547 8.4285 8.723 8.12701 8.133ZM5.22701 12.663C5.10601 12.563 5.10601 12.502 5.10601 12.482C5.12601 12.341 5.34701 12.082 5.90601 11.758C5.49101 12.542 5.27001 12.643 5.23001 12.663H5.22701ZM7.34101 6.651C7.36101 6.611 7.38101 6.591 7.40101 6.591H7.42101C7.49493 6.87426 7.49493 7.17174 7.42101 7.455C7.31149 7.20182 7.28353 6.92081 7.34101 6.651ZM6.85801 10.833C7.13032 10.1772 7.36405 9.50607 7.55801 8.823C7.84883 9.33967 8.18339 9.83046 8.55801 10.29C7.97961 10.432 7.41161 10.6134 6.85801 10.833ZM9.97501 10.512C10.0985 10.5008 10.2228 10.5215 10.336 10.572C10.316 10.612 10.316 10.652 10.276 10.692C10.2551 10.7317 10.2231 10.7643 10.1837 10.7858C10.1444 10.8073 10.0997 10.8168 10.055 10.813C9.85177 10.783 9.66243 10.692 9.51201 10.552C9.69301 10.532 9.85401 10.512 9.97501 10.512ZM9.99001 0.0670013H2.43801C2.14998 0.0672656 1.8738 0.181736 1.67003 0.385315C1.46627 0.588893 1.35154 0.864966 1.35101 1.153V15C1.35128 15.2882 1.46589 15.5645 1.66968 15.7683C1.87348 15.9721 2.1498 16.0867 2.43801 16.087H13.422C13.7101 16.0867 13.9864 15.9721 14.19 15.7683C14.3936 15.5644 14.508 15.2881 14.508 15V4.3L9.99001 0.0670013ZM9.72401 1.873L12.245 4.235H9.89401C9.84893 4.235 9.80569 4.21709 9.77381 4.18521C9.74192 4.15333 9.72401 4.11009 9.72401 4.065V1.873ZM13.008 14.587H2.85101V1.567H8.22401V4.067C8.22454 4.50975 8.40066 4.93421 8.71373 5.24729C9.0268 5.56036 9.45126 5.73647 9.89401 5.737H13.008V14.587Z" fill="black"/>
</svg>

<svg id="Layer_1" data-name="Layer 1" xmlns="http://www.w3.org/2000/svg" viewBox="0 0 16 16"><title>outlined-pdf-file</title><path d="M8.127,8.133c.325-1.4.122-1.858-.063-2.082a.817.817,0,0,0-.623-.295,1.031,1.031,0,0,0-.282.05.852.852,0,0,0-.556.522A2.566,2.566,0,0,0,6.9,8.259a17.545,17.545,0,0,1-.9,2.537c-1.075.508-1.609,1.011-1.676,1.579a1,1,0,0,0,.439.935.756.756,0,0,0,.473.167,1.364,1.364,0,0,0,1.038-.711A7.38,7.38,0,0,0,6.873,11.7a13.559,13.559,0,0,1,1.955-.637,1.913,1.913,0,0,0,1.227.564,1.056,1.056,0,0,0,.873-.467.858.858,0,0,0,.137-.952,1.147,1.147,0,0,0-1.091-.492,4.346,4.346,0,0,0-.745.063A8.444,8.444,0,0,1,8.127,8.133Zm-2.9,4.53c-.121-.1-.121-.161-.121-.181.02-.141.241-.4.8-.724C5.491,12.542,5.27,12.643,5.23,12.663ZM7.341,6.651q.03-.06.06-.06h.02a1.711,1.711,0,0,1,0,.864A1.328,1.328,0,0,1,7.341,6.651Zm-.483,4.182a18.218,18.218,0,0,0,.7-2.01,10.378,10.378,0,0,0,1,1.467A13.039,13.039,0,0,0,6.858,10.833Zm3.117-.321a.726.726,0,0,1,.361.06c-.02.04-.02.08-.06.12a.228.228,0,0,1-.221.121,1.015,1.015,0,0,1-.543-.261C9.693,10.532,9.854,10.512,9.975,10.512ZM9.99.067H2.438A1.088,1.088,0,0,0,1.351,1.153V15a1.088,1.088,0,0,0,1.087,1.087H13.422A1.087,1.087,0,0,0,14.508,15V4.3ZM9.724,1.873l2.521,2.362H9.894a.17.17,0,0,1-.17-.17Zm3.284,12.714H2.851V1.567H8.224v2.5a1.672,1.672,0,0,0,1.67,1.67h3.114Z"/></svg>
